dist/svgs/unicons/line/wallet.svg

<svg xmlns="http://www.w3.org/2000/svg" viewBox="0 0 24 24"><path d="M19 7h-1V6a3 3 0 00-3-3H5a3 3 0 00-3 3v12a3 3 0 003 3h14a3 3 0 003-3v-8a3 3 0 00-3-3zM5 5h10a1 1 0 011 1v1H5a1 1 0 010-2zm15 10h-1a1 1 0 010-2h1zm0-4h-1a3 3 0 000 6h1v1a1 1 0 01-1 1H5a1 1 0 01-1-1V8.83A3 3 0 005 9h14a1 1 0 011 1z"/></svg>

<svg xmlns="http://www.w3.org/2000/svg" viewBox="0 0 24 24"><path d="M19,7H18V6a3,3,0,0,0-3-3H5A3,3,0,0,0,2,6H2V18a3,3,0,0,0,3,3H19a3,3,0,0,0,3-3V10A3,3,0,0,0,19,7ZM5,5H15a1,1,0,0,1,1,1V7H5A1,1,0,0,1,5,5ZM20,15H19a1,1,0,0,1,0-2h1Zm0-4H19a3,3,0,0,0,0,6h1v1a1,1,0,0,1-1,1H5a1,1,0,0,1-1-1V8.83A3,3,0,0,0,5,9H19a1,1,0,0,1,1,1Z"/></svg>
